!!!!SEGMENT: pl-wtm--a-40-472_szymanowski-karol--czasem-gdy-dlugo-na-polsennie-marze-op-2-n-4.krn
!!!cenid: 19xx:67
!!!COM: Szymanowski, Karol
!!!COM-rismID: pe30106403
!!!CDT: 1882-1937
!!!CNT: Polish
!!!OTL: Czasem gdy długo na półsennie marzę Op. 2 N. 4
!!!PDT:
!!!AGN: Secular; Song
!!!YEC: Copyright 2022 Narodowy Instytut Fryderyka Chopina (https://polishscores.org)
!!!YEM: License CC-BY-4.0 (https://creativecommons.org/licenses/by/4.0)
!!!SMS-siglum: PL-Wtm
!!!SMS-shelfmark: A.40.472
!!!SMS-variant:
!!!SMS-altvar:
!!!SMS-shelfwork: W
!!!NIFC-rismSourceID: 1001217825
!!!NIFC-rismChildID: 1001217825
!!!NIFC-islandoraID: pl-wtm:96918
!!!URL-pdf-islandora: https://repozytorium.nifc.pl/islandora/object/pl-wtm%3A96918/datastream/PDF/view
!!!URL-scan: https://polish.musicsources.pl/pl/lokalizacje/galeria/druki-muzyczne/21972/2 @EN{Scan on Polish Music Sources Website} @PL{Skany w portalu Dziedzictwo Muzyki Polskiej w otwartym dostępie}
!!!IIIF:
!!!ONB-nifc:
!!!OMD: Andante dolce e tranquillo.
!!!AIN: 1 piano 1 vox
!!!key: E
**kern	**kern	**dynam	**kern	**text	**dynam
*part2	*part2	*part2	*part1	*part1	*part1
*staff3	*staff2	*	*staff1	*staff1	*
*I"FORTEPIAN.	*I"FORTEPIAN.	*	*I"ŚPIEW.	*	*
*Ipiano	*Ipiano	*	*Ivox	*	*
*ICklav	*ICklav	*	*ICvox	*	*
*IGacmp	*IGacmp	*	*IGsolo	*	*
*clefF4	*clefG2	*	*clefG2	*	*
*k[f#c#g#d#]	*k[f#c#g#d#]	*	*k[f#c#g#d#]	*	*
*E:	*E:	*	*E:	*	*
*M3/4	*M3/4	*	*M3/4	*	*
=1	=1	=1	=1	=1	=1
*clefG2	*	*	*	*	*
!	!LO:TX:b:t=legatissimo	!	!	!	!
(>4gn/ 4b	4r	.	2.r	.	.
4f#/ 4a#X	4r	.	.	.	.
!	!LO:TX:a:t=dolce cantabile	!	!	!	!
4fn/ 4an	(>[>4b/	.	.	.	.
=2	=2	=2	=2	=2	=2
4e/ 4g#X	8b/]	<	2.r	.	.
.	4b/	.	.	.	.
4d#/ 4gn	.	.	.	.	.
.	8g#/L	.	.	.	.
4dn/ 4f#	8a/	.	.	.	.
.	8b/J	[	.	.	.
=3	=3	=3	=3	=3	=3
4c#/ 4e#X	2a/	>	2.r	.	.
4cn/ 4en	.	.	.	.	.
4B/) 4d#	[>4g#/	]	.	.	.
*clefF4	*	*	*	*	*
=4	=4	=4	=4	=4	=4
(4A#X\ 4dn	8g#/])	<	2.r	.	.
.	(4g#/	.	.	.	.
4An\ 4c#	.	.	.	.	.
.	8e/L	.	.	.	.
4G#\ 4B#X	8f#/	.	.	.	.
.	8g#/J	[	.	.	.
=5	=5	=5	=5	=5	=5
*	*^	*	*	*	*
4Gn\ 4Bn	4r	4.e\	>	4r	.	.
4F#\ 4A#X	4r	.	.	4r	.	.
.	.	8cn\L	]	.	.	.
!	!LO:TX:b:t=rit.	!	!	!	!	!
!	!LO:TX:a:t=ten.	!	!	!	!	!
4Fn\) 4An	[4b^/	8dn\	.	([4b\	Cza-	.
.	.	8d#X\J)	.	.	.	.
!!LO:LB:g=original
=6	=6	=6	=6	=6	=6	=6
*^	*	*	*	*^	*	*
(2B/	4E\	(2b/]	4e\ 4g#	.	4.b/]	4ryy	.	.
.	4D#\	.	4gn\	.	.	4ryy	.	.
!	!	!	!	!	!	!	!	!LO:HP:a
.	.	.	.	.	8g#/)	.	.	<
4G#/	4Dn\	4b/	4f#\	.	8a/L	(8a\	-sem	.
.	.	.	.	.	8b/J	8b\)	.	[
*	*	*	*	*	*v	*v	*	*
=7	=7	=7	=7	=7	=7	=7	=7
2A/	4C#\	2a/	4fn\	.	[4a/	gdy	.
!	!	!	!	!	!	!	!LO:HP:a
.	4Cn\	.	4e\	.	4.a/]	dłu-	>
4B/)	4BB\	4g#/)	4d#\	.	.	.	.
.	.	.	.	.	8g#/	-go	]
=8	=8	=8	=8	=8	=8	=8	=8
*	*	*	*	*	*^	*	*
(2Eni/	4AA#X\	(2g#/	4c##X\	.	8r	8ryy	.	.
!	!	!	!	!	!	!	!	!LO:HP:a
.	.	.	.	.	4g#/	8g#\	na	<
!	!	!	!LO:N:acc=n#	!	!	!	!	!
.	4AAn\	.	4c#X\	.	.	8g#\	.	.
.	.	.	.	.	8e/	8ryy	pół-	.
!	!	!	!	!LO:HP:t=dimin.	!	!	!	!
4G#/	4GG#\	4f#/	4B#X\	>	8f#/	4ryy	-sen-	.
.	.	.	.	.	8g#/	.	-nie	[
*	*	*	*	*	*v	*v	*	*
=9	=9	=9	=9	=9	=9	=9	=9
*	*	*	*^	*	*	*	*
!	!	!LO:TX:a:t=riten.	!	!	!	!	!	!LO:HP:a
2C#/	4GGn\	2e/	4Bn\	4r	.	2e/	ma-	>
.	4FF#\	.	4A#X\ 4a#X	2ryy	.	.	.	.
[4BB/)	4FFn\	4d#/)	4An\ 4an	.	.	4d#/	-rzę,	]
=10	=10	=10	=10	=10	=10	=10	=10	=10
4BB/]	[2.EE\ [>2.E	(4.g#/	4G#\	2.e/	.	4r	.	.
4r	.	.	4A\	.	<	4r	.	.
.	.	8e/L	.	.	.	.	.	.
4r	.	8f#/	4A#X\	.	.	([4cc#^\	cu-	>
.	.	8g#/J	.	.	[	.	.	.
*v	*v	*	*	*	*	*	*	*
*	*	*v	*v	*	*	*	*
!!LO:LB:g=original
=11	=11	=11	=11	=11	=11	=11
*	*	*	*^	*	*	*
!	!	!	!LO:HP:b	!	!	!	!
2.EE/] 2.E]	4g#/	4.A\ 4.d#	<	<	8cc#\L]	-dny,	.
.	.	.	.	.	8b\J)	.	]
.	8f#/)	.	.	.	8r	.	.
!	!	!	!	!	!	!	!LO:DY:a
.	(<4A#X/ 4e 4gn	8ryy	[	.	8cc#\	ko-	<
.	.	4ryy	.	.	8dd#\	-bie-	.
.	8c#/) 8g 8a#X	.	.	.	8ee\	-cy	[
*	*	*	*v	*v	*	*	*
=12	=12	=12	=12	=12	=12	=12
*	*	*	*	*^	*	*
!	!	!	!	!LO:TX:a:t=dolce	!	!	!
(4DD#/ 4D#	(4f#/ 4ff#	8cc#\L	.	([4ff#\	2ryy	głos	.
.	.	8b\J	.	.	.	.	.
2GG#/) 2G#	4f#^/ 4ff#	4b\	>	8ff#\L]	.	.	.
.	.	.	.	8b\J)	.	.	.
.	4e/ 4ee	8cc#\L	.	8cc#/L	(>8cc#\	mię	.
.	.	8b\J	]]	8dd#/J	8dd#\)	.	.
*	*	*	*	*v	*v	*	*
=13	=13	=13	=13	=13	=13	=13
(4CC#/ 4C#	4e/ 4ee	8b\L	.	([4ee\	skądś	.
.	.	8a#X\J	.	.	.	.
2FF#/) 2F#	4e^/ 4ee	4a#\	>	8ee\L]	.	.
.	.	.	.	8a#X\J)	.	.
.	4d#/ 4dd#	8b\L	.	(8b\L	do-	.
.	.	8cc#\J)	]]	8cc#\J)	.	.
=14	=14	=14	=14	=14	=14	=14
!	!	!	!	!	!	!LO:DY:a
2.BBB/ 2.BB	([2.dd#/	8d#\ 8b	.	[<2dd#\	-la-	>
!	!	!	!LO:HP:t=diminuendo	!	!	!
.	.	4d#\ 4b	>	.	.	.
.	.	4d#\ 4b	.	.	.	.
.	.	.	.	4dd#\]	-ta,	]
.	.	[8d#\ [>8b	.	.	.	.
=15	=15	=15	=15	=15	=15	=15
*	*	*	*	*^	*	*
[2.FFF#/ [2.FF#	2.dd#/]	8d#\] 8b]	.	4r	4ryy	.	.
.	.	4d#\ 4b	.	.	.	.	.
.	.	.	.	4dd#\	4raa	.	.
.	.	4e\ 4b	.	.	.	.	.
.	.	.	.	4dd#/	4dd#\	a-	.
.	.	8e#X\) 8b	.	.	.	.	.
*	*v	*v	*	*	*	*	*
*	*	*	*v	*v	*	*
!!LO:PB:g=original
=16	=16	=16	=16	=16	=16
2.FFF#/] 2.FF#]	(8e/ 8g# 8dd# 8ee	p <	(4g#/	-niel-	.
.	4e/ 4g# 4dd# 4ee	.	.	.	.
!	!	!	!	!	!LO:HP:a
.	.	.	4a/)	.	<
.	4e/ 4an 4dd# 4ee	.	.	.	.
.	.	.	4a#X/	-skie	.
.	8e/) 8a#X 8dd# 8ee	.	.	.	.
=17	=17	=17	=17	=17	=17
[2.FFF#/ [2.FF#	(8d#/ 8f# 8b 8ff#	.	8b\	śpie-	[
!	!	!	!	!	!LO:HP:a
.	4d#/ 4f# 4b 4ff#	.	8b\	-wa-	>
.	.	.	4ff#\	-ją-	.
.	4d#/ 4f# 4b 4ff#	.	.	.	.
.	.	.	4dd#\	-cy	]
.	8d#/) 8f# 8a#X 8ff#	[	.	.	.
=18	=18	=18	=18	=18	=18
!	!	!	!	!	!LO:HP:a
2.FFF#/] 2.FF#]	(8c#/ 8e 8b 8cc#	<	(4e/	pie-	<
.	4c#/ 4e 4b 4cc#	.	.	.	.
.	.	.	4f#/)	.	.
.	4c#/ 4e 4b 4cc#	.	.	.	.
.	.	.	4f##X/	-śni,	[
.	8c#/) 8e 8b 8cc#	.	.	.	.
=19	=19	=19	=19	=19	=19
!	!	!	!	!	!LO:DY:a
[2.FFF#/ [2.FF#	(8B/ 8c# 8g# 8b	.	4g#/	pięk-	>
.	4B/ 4c# 4g# 4b	.	.	.	.
.	.	.	4ee\	-niej-	.
.	4B/ 4c# 4g# 4b	.	.	.	.
.	.	.	4cc#\	-sze	]
.	8A#X/) 8c# 8f# 8a#X	[	.	.	.
*	*clefF4	*	*	*	*
=20	=20	=20	=20	=20	=20
*	*	*	*^	*	*
!	!	!	!	!	!	!LO:HP:a
2.FFF#/] 2.FF#]	(8F#\ 8B 8d# 8f#	.	4d#/	2ryy	ni-	<
.	4F#\ 4B 4d# 4f#	.	.	.	.	.
.	.	.	4e/	.	-że-	.
!	!	!LO:HP:t=di-mi-nu-en-do:ext=cd	!	!	!	!
.	4F#\ 4B 4d# 4f#	>	.	.	.	.
.	.	.	4f#/	8f#\	-li	[
.	8F#\) 8B 8d# 8f#	.	.	8f#\	.	.
*	*	*	*v	*v	*	*
!!LO:LB:g=original
=21	=21	=21	=21	=21	=21
!	!	!	!	!	!LO:HP:a
[2.FFF#/ [2.FF#	(8E#X\ 8G# 8d# 8e#X	.	(4g#/	wszyst-	<
.	4E#\ 4G# 4d# 4e#	.	.	.	.
.	.	.	4dd#\)	.	[
!	!LO:TX:b:t=rit.	!	!	!	!
.	4E#\ 4G# 4d# 4e#	.	.	.	.
.	.	.	4b\	-kie	.
.	8E#\) 8G# 8d# 8e#	.	.	.	.
=22	=22	=22	=22	=22	=22
2.FFF#/] 2.FF#]	(8En\ 8Gn 8c# 8en	.	(4gn/	pie-	.
.	4E\ 4G 4c# 4e	.	.	.	.
.	.	.	4dd#\)	.	.
!	!LO:TX:b:t=rit.	!	!	!	!
.	4E\ 4G 4c# 4e	.	.	.	.
.	.	.	4b\	-śni	.
.	8E\) 8G#X 8c# 8e	.	.	.	.
=23	=23	=23	=23	=23	=23
!	!	!	!	!	!LO:HP:a
[2.FFF#/ [2.FF#	(8D#\ 8F# 8B 8d#	]	2f#/	świa-	>
.	4D#\ 4F# 4B 4d#	.	.	.	.
.	4D#\ 4F# 4B 4d#	.	.	.	.
.	.	.	4f#/	-ta;	]
.	8D#\) 8F# 8B 8d#	.	.	.	.
=24	=24	=24	=24	=24	=24
*^	*	*	*	*	*
!	!	!LO:TX:t=P:problem=klamra prawej ręki	!	!	!	!
8FFF#\] 8FF#]	8D#/ 8E#X	(4G#\	<	2.r	.	.
8ryy	4D#\ 4E# 4G#	.	.	.	.	.
2ryy	.	4d#\	.	.	.	.
.	4D#\ 4E# 4G#	.	.	.	.	.
!	!	!LO:TX:b:t=rit.	!	!	!	!
.	.	4B\)	[	.	.	.
.	8D#\ 8E# 8G#	.	.	.	.	.
=25	=25	=25	=25	=25	=25	=25
!	!	!LO:TX:t=P:problem=klamra prawej ręki	!	!	!	!
8FFF#\ 8FF#	8C#/ 8En	(4Gn\	<	2.r	.	.
8ryy	4C#\ 4E 4Gn	.	.	.	.	.
2ryy	.	4d#\	.	.	.	.
.	4C#\ 4E 4G	.	.	.	.	.
!	!	!LO:TX:b:t=rit.	!	!	!	!
.	.	4B\)	[	.	.	.
.	8C#\ 8E 8G	.	.	.	.	.
*v	*v	*	*	*	*	*
!!LO:LB:g=original
=26	=26	=26	=26	=26	=26
*	*^	*	*	*	*
!	!LO:TX:a:t=ten.	!	!	!	!	!
2.FFF#/ 2.FF#	(2.A#X/	8Cn\ 8E 8F#	>	2.r	.	.
.	.	4C\ 4E 4F#	.	.	.	.
!	!LO:TX:b:t=rallent.	!	!	!	!	!
.	.	4C\ 4E 4F#	.	.	.	.
.	.	8C\ 8E 8F#	.	.	.	.
=27	=27	=27	=27	=27	=27	=27
2.BBB/ [2.BB	8B/)	2.D#\ 2.F#	.	2.r	.	.
.	4B/	.	] pp <	.	.	.
.	4B/	.	.	.	.	.
.	N(8B/	.	.	.	.	.
*	*v	*v	*	*	*	*
*	*clefG2	*	*	*	*
=28	=28	=28	=28	=28	=28
*^	*	*	*	*	*
!	!	!LO:TX:a:t=a tempo	!	!	!	!
2.BB\]	8B/N)	4r	[	4r	.	.
.	4B/	.	.	.	.	.
.	.	4r	.	4r	.	.
.	4B/	.	.	.	.	.
.	.	(>4fn^>/ 4a	p	4b\	.	.
.	[>8B/	.	.	.	.	.
=29	=29	=29	=29	=29	=29	=29
*	*	*	*	*^	*	*
[<2.BB\	8B/]	4e/ 4g#	.	(4.b/	2ryy	W głos	.
.	4B/	.	.	.	.	.	.
.	.	4d#/ 4gn	.	.	.	.	.
.	4B/	.	.	8g#/)	.	.	.
.	.	4dn/ 4f#	.	8a/	8a\L	ten	.
.	[>8B/	.	.	8b/	8b\J	się	.
*	*	*	*	*v	*v	*	*
=30	=30	=30	=30	=30	=30	=30
!	!	!	!	!	!	!LO:DY:a
2.BB\]	8B/]	4c#/ 4e#X	.	(4a/	ca-	<
.	4B/	.	.	.	.	.
.	.	4cn/ 4en	.	4ee\)	.	[
.	4B/	.	.	.	.	.
.	.	4B/) 4d#	.	4b\	-łą	.
.	[>8B/	.	.	.	.	.
*	*	*clefF4	*	*	*	*
!!LO:LB:g=original
=31	=31	=31	=31	=31	=31	=31
[<2.BB\	8B/]	(4A#X\ 4dn	>	4.g#/	za-	.
.	4B/	.	.	.	.	.
.	.	4An\ 4c#	.	.	.	.
!	!	!	!	!	!	!LO:DY:a
.	4B/	.	.	8e/	-słu-	<
.	.	4G#\ 4B#X	.	8f#/	-chu-	.
.	[>8B/	.	]	8g#/	-je	.
=32	=32	=32	=32	=32	=32	=32
*	*	*^	*	*^	*	*
2.BB\]	8B/]	4Gn\ 4Bn	2ryy	<	(4e/	2ryy	du-	.
.	4cn^>/	.	.	.	.	.	.	.
!	!	!	!	!	!	!	!	!LO:DY:a
.	.	4F#\ 4A#X	.	.	4ccn\)	.	.	[ >
!LO:TX:a:t=rit.	!	!	!	!	!	!	!	!
.	4c/	.	.	.	.	.	.	.
.	.	8Fn\L	[>4An/)	[	4a/	8a\	-szą;	]
.	8c/	8E\J	.	.	.	8a\	.	.
*v	*v	*	*	*	*	*	*	*
*	*v	*v	*	*	*	*	*
=33	=33	=33	=33	=33	=33	=33
!	!	!	!	!	!	!LO:DY:a
[2.BBB/ [2.BB	8D#\ 8A]	.	8a/	4a\	ser-	pp
*	*clefG2	*	*	*	*	*
!	!LO:TX:a:t=poco avvivando	!LO:DY:rj	!	!	!	!
.	(4cn/ 4e 4a	pp <	8a/	.	-ce	.
.	.	.	8a/	8a\	mi	.
.	4c#X/ 4e#X 4a	.	8a/	8a\	tę-	.
.	.	.	8a/	8a\	-skno-	.
.	8dn/ [>8f#X [>8a	.	8a/	8a\	-ta	.
=34	=34	=34	=34	=34	=34	=34
*	*^	*	*	*	*	*
2.BBB/] 2.BB]	8d#X\ 8f#]	8a/]	.	(<8.a/L	8.a\	wy-	.
.	4e\ 4gn	8ryy	.	.	.	.	.
.	.	.	.	16b/Jk)	16b\	.	.
.	.	2ryy	.	4.a/	2a\	-ry-	.
.	4e#X\ 4g#X	.	[	.	.	.	.
.	8f#\) 8a	.	.	8a/	.	-wa,	.
*	*v	*v	*	*	*	*	*
!!LO:PB:g=original
=35	=35	=35	=35	=35	=35	=35
!	!	!LO:HP:t=cres-cendo e avvivando:ext=s:ext=cd	!	!	!	!LO:HP:a:t=cres-cen-do:ext=0:ext=cd
8BBB/ 8BB	(>8d#/ 8a 8ccn	<	4ccn/	4cc\	po-	<
(4E\ 4A 4cn	4e/ 4a 4cc	.	.	.	.	.
.	.	.	8cc/	8ryy	-szedł-	.
!	!	!	!LO:N:vis=4	!	!	!
4Fn\ 4A 4c	4fn/ 4a 4cc	.	8cc/	8cc\	-bym	.
!	!	!	!LO:N:vis=4	!	!	!
.	.	.	8cc/	8cc\	za	.
!	!	!	!LO:N:vis=4	!	!	!
8F#X\) 8A 8c	8f#X/) 8a 8cc	.	8cc/	8cc\	nim	.
*	*	*	*v	*v	*	*
=36	=36	=36	=36	=36	=36
8BBB/ 8BB	(>8f#/ 8ccn 8dd#	.	(8.dd#\L	wszę-	[
(4Gn\ 4cn 4d#	4gn/ 4cc 4dd#	.	.	.	.
.	.	.	16ee\Jk)	.	.
.	.	.	2dd#\	-dzie,	.
4G#X\ 4c 4d#	4g#X/ 4cc 4dd#	.	.	.	.
8A\) 8c 8d#	8a/) 8cc 8dd#	[	.	.	.
=37	=37	=37	=37	=37	=37
!	!	!	!	!	!LO:DY:a
!	!	!	!	!	!LO:HP:a
8BBB/ 8BB	(8a\ 8dd# 8ff#	f	([2.ff#^\	wszę-	f <
(4A#X\ 4d# 4f#	4a#X\ 4ee 4gg#	.	.	.	.
4B\ 4d# 4f#	4b\ 4dd# 4ff#	.	.	.	.
8cn\) 8d# 8f#	8ccn\) 8dd# 8ff#	.	.	.	.
=38	=38	=38	=38	=38	=38
8BBB/ 8BB	8r	.	8.ff#\L]	.	[
(4An\ 4d# 4f#	(4an\ 4dd# 4ff#	f	.	.	.
!	!	!	!	!	!LO:HP:a
.	.	.	16ggn\Jk)	.	>
.	.	.	2ff#\	-dzie!	]
8A#X\L 8d# 8f#	8a#X\L 8dd# 8ff#	.	.	.	.
!	!LO:TX:b:t=rit.	!	!	!	!
8B\ 8d# 8f#	8b\ 8dd# 8ff#	.	.	.	.
8cn\J) 8d# [8f#	8ccn\J) 8dd# [8ff#	.	.	.	.
=39	=39	=39	=39	=39	=39
*^	*^	*	*	*	*
!	!	!LO:TX:a:t=Tempo I.	!	!	!	!	!
(8f#/]	4B\ 4d#	(8ff#/]	4b\ 4dd#	f	4r	.	.
4gn/	.	4ggn/	.	.	.	.	.
.	4A#X\ 4dn	.	4a#X\ 4ddn	.	8r	.	.
!	!	!	!	!	!	!	!LO:DY:a
8e/L	.	8ee/L	.	.	(8ee\L	Nie	f
8f#/	4An\ 4c#X	8ff#/	4an\ 4cc#X	.	8ff#\J)	.	.
8g/J)	.	8gg/J	.	.	8ggn\	wiem	.
!!LO:LB:g=original
=40	=40	=40	=40	=40	=40	=40	=40
*	*	*	*	*	*^	*	*
2e/	4Gn\ 4B	2ee/	4gn\ 4b	.	4ee/	2ee\	czy	.
.	4F#\ 4A#X	.	4f#\ 4a#X	.	(4ee/	.	to	.
[4B/	4Fn\ 4An	[4b/)	4fn\ 4an	.	4b/)	4b\	.	.
=41	=41	=41	=41	=41	=41	=41	=41	=41
(8B/]	4E\ 4Gn	(8b/]	4e\ 4gn	.	4b/	2b\	mi-	.
!	!	!	!	!LO:HP:a:t=po-co diminuendo:ext=s:ext=cd	!	!	!	!
4B/	.	4b/	.	>	.	.	.	.
.	4Dn\ 4F#	.	4dn\ 4f#	.	4gn/	.	-łość,	.
8G/L	.	8gn/L	.	.	.	.	.	.
8A/	4C#\ 4E#X	8a/	4c#\ 4e#X	.	(8a/L	4ryy	czy	.
8B/J	.	8b/J	.	.	8b/J)	.	.	.
*	*	*	*	*	*v	*v	*	*
=42	=42	=42	=42	=42	=42	=42	=42
2A/	4Cn\ [>4En	2a/	4cn\ [>4en	.	2a/	śmierć	.
.	[4BB\ 4E]	.	[4B\ 4e]	.	.	.	.
[4Gn/)	4BB\] 4D#	[4gn/)	4B\] 4d#	]	4gn/	się	.
=43	=43	=43	=43	=43	=43	=43	=43
8G/]	4AA#X\ 4C##X	(8g/]	4A#X\ 4c##X	.	8r	.	.
(4Gn/	.	4gn/	.	.	(4gn/	tak	.
!	!LO:N:n=2:acc=n#	!	!LO:N:n=2:acc=n#	!	!	!	!
.	4AAn\ 4C#X	.	4An\ 4c#X	.	.	.	.
8E/L	.	8e/L	.	.	8e/)	.	.
8F#/	4GG#\ 4BB#X	8f#/	4G#\ 4B#X	.	(8f#/L	od-	.
8G/J	.	8g/J	.	.	8g/J)	.	.
*	*	*clefF4	*	*	*	*	*
=44	=44	=44	=44	=44	=44	=44	=44
4.E/	4GGn\ 4BBn	4.e/	4Gn\ 4Bn	.	2e/	-zy-	.
.	4FF#\ 4AA#X	.	4F#\ 4A#X	.	.	.	.
!	!	!LO:TX:b:t=rallent.	!	!	!	!	!
4BB/	.	4B/	.	.	.	.	.
!LO:TX:b:t=ten.	!	!	!	!	!	!	!
.	4BBB\ 4FFn 4AAn	.	4Fn\ 4An	.	4B/	-wa.	.
8BB/)	.	[8B/)	.	.	.	.	.
*v	*v	*	*	*	*	*	*
!!LO:LB:g=original
=45	=45	=45	=45	=45	=45	=45
!	!LO:TX:t=P:problem=brak zakończenia ligatury	!	!	!LO:TX:a:t=Tempo I.	!	!
[2.EEE/ [2.EE	(>4.B/]	4E\ 4G#	pp <	2.r	.	.
.	.	4D#\ 4F##X	.	.	.	.
.	8G#/L	.	.	.	.	.
!	!	!LO:N:n=2:acc=n#	!	!	!	!
.	8A/	4Dn\ 4F#X	.	.	.	.
.	8B/J	.	[	.	.	.
=46	=46	=46	=46	=46	=46	=46
2.EEE/] 2.EE]	2A/	4C#\ 4E#X	>	2.r	.	.
.	.	4Cn\ 4En	.	.	.	.
.	4G#/)	4BB\ 4D#	]	.	.	.
=47	=47	=47	=47	=47	=47	=47
!	!LO:TX:b:t=m.d.	!	!	!	!	!
8qEEE/	.	.	.	.	.	.
*^	*	*	*	*	*	*
[2.EE\	4ryy	N(4E</ 4G#<	(<4.B\	<	2.r	.	.
.	4ryy	4D#</ 4F##X<	.	.	.	.	.
.	.	.	8G#\L	.	.	.	.
!LO:TX:a:t=m.s.	!LO:N:n=2:acc=n#	!	!	!	!	!	!
.	4Dn/ 4F#X	([4e^/	8A\	.	.	.	.
.	.	.	8B\J	.	.	.	.
=48	=48	=48	=48	=48	=48	=48	=48
2.EE\]	4C#/ 4En	4.e/]	2A\)	[	2.r	.	.
.	4Cn/ [>4D#	.	.	.	.	.	.
.	.	4e#X/	.	.	.	.	.
.	4BB/N) 4D#]	.	8B\L	.	.	.	.
.	.	8f#/	8A\J	.	.	.	.
*v	*v	*	*	*	*	*	*
*	*v	*v	*	*	*	*
=49	=49	=49	=49	=49	=49
2.EE;</ 2.BB 2.E	2.G#;\) 2.B 2.e 2.g#	ppp	2.r;	.	.
==	==	==	==	==	==
*-	*-	*-	*-	*-	*-
!!!system-decoration: s1{(s2,s3)}
!!!RDF**kern: i = editorial accidental
!!!RDF**kern: < = below
!!!RDF**kern: > = above
!!!RDF**kern: N = linked
!!!ENC: Anastazja Marusiak
!!!END: 2023-09-09
!!!EED: Marta Chmielewska
!!!EEV: 2023-09-27
